X:1
T:Title
%%score { ( 1 3 ) | ( 2 4 ) }
L:1/8
M:4/4
K:Bb
V:1 treble nm="Grand Piano"
V:3 treble 
V:2 bass 
V:4 bass 
V:1
 z4 z2[Q:1/4=94] DE | F>F G>D F2 DE | F>F G>D F3 d | d>A c>B z/ F3/2 B>G | [EA]6 FG | %5
 A>A B>B c2 AF | [B,FB]2 c>c d3 d | c>A c>d c<G c>d |[M:7/8] c-c-c- c3 z |[M:1/8] F | %10
[M:4/4] [DB]>[DB] [DB]>[DB] [DB]<[DA] [DG]>[DF] | A6 z2 | A>A A>A A<G F>[A,EG] | D6 z2 | %14
 z4 .[Ee]2 z2 | [Ec]>[EG] [FG]>[FG] [=Ec]3 [EG] | B>A A>G F<e d>c |[M:3/4] [DB]6 |] %18
V:2
 z8 | [B,,D,B,]2 [G,,D,]2 [B,,D,B,]2 z2 | [B,,D,B,]2 [G,,D,]2 [B,,D,B,]2 z2 | %3
 [B,,B,]2 [F,,A,E]2 [B,,F,]2 B,>B, | [C,F,]6 z2 | z4 z2 .C2 | %6
 z z/[K:treble] B/[K:bass] [C,A,]2 [B,,B,]2 z2 | [C,A,]2 [C,A,]2 [C,B,]2 [C,B,]2 | %8
[M:7/8] [F,A,E]-[F,A,E]-[F,A,E]- [F,A,E]3 z |[M:1/8] [F,A,E] | %10
[M:4/4] [B,,F,]>[B,,F,] [B,,F,]>[B,,F,] [B,,F,]<[B,,F,] [B,,F,]>[B,,F,] | %11
 [C,F,]2 [F,C]>[F,C] [F,C]2 z [F,A,C] | [F,CE]>[F,CE] [F,CE]>[F,CE] [F,CE]<[F,B,E] [F,A,E]>F,, | %13
 [B,,F,B,]2 [D,F,]>[C,E,] [B,,D,]2 [B,,F,]>[B,,B,] | %14
 [B,,B,]>[B,,B,] [B,,F,]>[B,,F,] .[B,,G,][B,,B,][C,F,][D,B,] | %15
 [E,G,]>[E,B,] [D,=B,]>[G,B,] [C,_B,]3 [C,B,] | %16
 [F,DE]>[F,CE] [F,CE]>[F,B,E] [F,A,E]<[G,B,E] [F,B,F]>[A,E] |[M:3/4] [B,,F,]6 |] %18
V:3
 x8 | z2 B,2 z4 | z2 B,2 z4 | F2 z2 D2 z2 | x8 | x8 | z2 F2 F2 z2 | F2 F2 =E2 E2 |[M:7/8] x7 | %9
[M:1/8] x |[M:4/4] x8 | E2 E>E E2 z E | x8 | z2 B,>A, B,2 [DF]>[DF] | %14
 [DF]>[DG] [DA]>[DB] z/ A,/[Fd] [EA][FB] | x8 | x8 |[M:3/4] x6 |] %18
V:4
 x8 | x8 | x8 | z4 z2 [D,F,]2 | x8 | [F,CE]2 [F,B,D]2 [F,A,E]2 [F,E]-[F,A,E] | %6
 D,2[K:treble][K:bass] z2 z4 | x8 |[M:7/8] x7 |[M:1/8] x |[M:4/4] x8 | x8 | x8 | x8 | x8 | x8 | %16
 x8 |[M:3/4] x6 |] %18

